images/unAAVE.svg

<svg height="250" viewBox="0 0 250 250" width="250" xmlns="http://www.w3.org/2000/svg" xmlns:xlink="http://www.w3.org/1999/xlink"><linearGradient id="a" gradientUnits="userSpaceOnUse" x1="60.19816791278" x2="249.16055933273" y1="-.00000229358" y2="43.7715599832"><stop offset="0" stop-color="#2e73ff"/><stop offset=".894147" stop-color="#184ce8"/></linearGradient><path d="m248.820312 124.410156c0 68.710938-55.699218 124.410156-124.410156 124.410156-68.710937 0-124.410156-55.699218-124.410156-124.410156 0-68.710937 55.699219-124.410156 124.410156-124.410156 68.710938 0 124.410156 55.699219 124.410156 124.410156zm0 0" fill="url(#a)"/><path d="m153.121094 187.890625c-2.632813-2.9375-6.191406-4.40625-10.675782-4.40625-2.636718 0-4.972656.539063-7.007812 1.609375-2 1.050781-3.59375 2.417969-4.789062 4.105469v-5.371094h-13.664063v20.550781c0 2.1875-.578125 3.90625-1.730469 5.160156-1.160156 1.25-2.730468 1.875-4.71875 1.875-1.941406 0-3.5-.625-4.679687-1.875-1.179688-1.253906-1.769531-2.972656-1.769531-5.160156v-20.550781h-13.523438v22.261719c0 5.050781 1.308594 9.046875 3.917969 11.984375 2.613281 2.933593 6.183593 4.402343 10.714843 4.402343 2.636719 0 4.972657-.535156 7.007813-1.605468 2.03125-1.066406 3.628906-2.46875 4.78125-4.199219v5.464844h13.664063v-21.765625c.179687-1.621094.738281-2.933594 1.671874-3.945313 1.152344-1.25 2.746094-1.878906 4.78125-1.878906 1.941407 0 3.492188.628906 4.648438 1.878906 1.15625 1.253907 1.734375 2.96875 1.734375 5.15625v20.554688h13.59375v-22.328125c0-5.007813-1.320313-8.980469-3.957031-11.917969zm0 0" fill="#fff"/><path d="m210.792969 179.753906c10.25-15.964844 16.195312-34.960937 16.195312-55.34375 0-56.65625-45.925781-102.582031-102.582031-102.582031s-102.582031 45.925781-102.582031 102.582031c0 20.5625 6.046875 39.710938 16.464843 55.761719 21.398438-10.644531 52.308594-17.328125 86.675782-17.328125 33.917968 0 64.464844 6.511719 85.828125 16.910156zm0 0" fill="#fff" fill-rule="evenodd"/><path d="m169.328125 132.144531-32.421875-73.722656c-1.832031-3.808594-4.546875-5.667969-8.132812-5.667969h-2.863282c-3.585937 0-6.304687 1.859375-8.132812 5.667969l-14.109375 32.121094h-10.675781c-3.1875.023437-5.78125 2.441406-5.808594 5.460937v.070313c.027344 3 2.621094 5.4375 5.808594 5.460937h5.734374l-13.46875 30.609375c-.246093.675781-.394531 1.371094-.394531 2.09375 0 1.71875.566407 3.066407 1.582031 4.113281 1.011719 1.046876 2.46875 1.558594 4.296876 1.558594 1.210937-.023437 2.375-.375 3.335937-1.046875 1.039063-.675781 1.757813-1.652343 2.324219-2.765625l14.828125-34.585937h10.277343c3.1875-.023438 5.785157-2.4375 5.808594-5.460938v-.140625c-.023437-2.996094-2.621094-5.4375-5.808594-5.460937h-5.484374l11.316406-26.519531 30.839844 72.144531c.570312 1.113281 1.285156 2.089843 2.324218 2.765625.964844.671875 2.148438 1.023437 3.335938 1.046875 1.828125 0 3.261718-.511719 4.300781-1.558594s1.582031-2.394531 1.582031-4.113281c.023438-.699219-.101562-1.417969-.394531-2.070313zm0 0" fill="#2c2c2c"/></svg>

<svg xmlns="http://www.w3.org/2000/svg" xmlns:xlink="http://www.w3.org/1999/xlink" width="250px" height="250px" viewBox="0 0 250 250" version="1.1">
<defs>
<linearGradient id="linear0" gradientUnits="userSpaceOnUse" x1="26.246401" y1="-0.000000559633" x2="108.634003" y2="19.0844" gradientTransform="matrix(2.293578,0,0,2.293578,0,0)">
<stop offset="0" style="stop-color:rgb(18.039216%,45.09804%,100%);stop-opacity:1;"/>
<stop offset="0.894147" style="stop-color:rgb(9.411765%,29.803923%,90.980393%);stop-opacity:1;"/>
</linearGradient>
</defs>
<g id="surface1">
<path style=" stroke:none;fill-rule:nonzero;fill:url(#linear0);" d="M 248.820312 124.410156 C 248.820312 193.121094 193.121094 248.820312 124.410156 248.820312 C 55.699219 248.820312 0 193.121094 0 124.410156 C 0 55.699219 55.699219 0 124.410156 0 C 193.121094 0 248.820312 55.699219 248.820312 124.410156 Z M 248.820312 124.410156 "/>
<path style=" stroke:none;fill-rule:nonzero;fill:rgb(100%,100%,100%);fill-opacity:1;" d="M 153.121094 187.890625 C 150.488281 184.953125 146.929688 183.484375 142.445312 183.484375 C 139.808594 183.484375 137.472656 184.023438 135.4375 185.09375 C 133.4375 186.144531 131.84375 187.511719 130.648438 189.199219 L 130.648438 183.828125 L 116.984375 183.828125 L 116.984375 204.378906 C 116.984375 206.566406 116.40625 208.285156 115.253906 209.539062 C 114.09375 210.789062 112.523438 211.414062 110.535156 211.414062 C 108.59375 211.414062 107.035156 210.789062 105.855469 209.539062 C 104.675781 208.285156 104.085938 206.566406 104.085938 204.378906 L 104.085938 183.828125 L 90.5625 183.828125 L 90.5625 206.089844 C 90.5625 211.140625 91.871094 215.136719 94.480469 218.074219 C 97.09375 221.007812 100.664062 222.476562 105.195312 222.476562 C 107.832031 222.476562 110.167969 221.941406 112.203125 220.871094 C 114.234375 219.804688 115.832031 218.402344 116.984375 216.671875 L 116.984375 222.136719 L 130.648438 222.136719 L 130.648438 200.371094 C 130.828125 198.75 131.386719 197.4375 132.320312 196.425781 C 133.472656 195.175781 135.066406 194.546875 137.101562 194.546875 C 139.042969 194.546875 140.59375 195.175781 141.75 196.425781 C 142.90625 197.679688 143.484375 199.394531 143.484375 201.582031 L 143.484375 222.136719 L 157.078125 222.136719 L 157.078125 199.808594 C 157.078125 194.800781 155.757812 190.828125 153.121094 187.890625 Z M 153.121094 187.890625 "/>
<path style=" stroke:none;fill-rule:evenodd;fill:rgb(100%,100%,100%);fill-opacity:1;" d="M 210.792969 179.753906 C 221.042969 163.789062 226.988281 144.792969 226.988281 124.410156 C 226.988281 67.753906 181.0625 21.828125 124.40625 21.828125 C 67.75 21.828125 21.824219 67.753906 21.824219 124.410156 C 21.824219 144.972656 27.871094 164.121094 38.289062 180.171875 C 59.6875 169.527344 90.597656 162.84375 124.964844 162.84375 C 158.882812 162.84375 189.429688 169.355469 210.792969 179.753906 Z M 210.792969 179.753906 "/>
<path style=" stroke:none;fill-rule:nonzero;fill:rgb(17.254902%,17.254902%,17.254902%);fill-opacity:1;" d="M 169.328125 132.144531 L 136.90625 58.421875 C 135.074219 54.613281 132.359375 52.753906 128.773438 52.753906 L 125.910156 52.753906 C 122.324219 52.753906 119.605469 54.613281 117.777344 58.421875 L 103.667969 90.542969 L 92.992188 90.542969 C 89.804688 90.566406 87.210938 92.984375 87.183594 96.003906 L 87.183594 96.074219 C 87.210938 99.074219 89.804688 101.511719 92.992188 101.535156 L 98.726562 101.535156 L 85.257812 132.144531 C 85.011719 132.820312 84.863281 133.515625 84.863281 134.238281 C 84.863281 135.957031 85.429688 137.304688 86.445312 138.351562 C 87.457031 139.398438 88.914062 139.910156 90.742188 139.910156 C 91.953125 139.886719 93.117188 139.535156 94.078125 138.863281 C 95.117188 138.1875 95.835938 137.210938 96.402344 136.097656 L 111.230469 101.511719 L 121.507812 101.511719 C 124.695312 101.488281 127.292969 99.074219 127.316406 96.050781 L 127.316406 95.910156 C 127.292969 92.914062 124.695312 90.472656 121.507812 90.449219 L 116.023438 90.449219 L 127.339844 63.929688 L 158.179688 136.074219 C 158.75 137.1875 159.464844 138.164062 160.503906 138.839844 C 161.46875 139.511719 162.652344 139.863281 163.839844 139.886719 C 165.667969 139.886719 167.101562 139.375 168.140625 138.328125 C 169.179688 137.28125 169.722656 135.933594 169.722656 134.214844 C 169.746094 133.515625 169.621094 132.796875 169.328125 132.144531 Z M 169.328125 132.144531 "/>
</g>
</svg>
